icon_installer/data/icons/scalable/actions/show-broken-video-symbolic.svg

<?xml version="1.0" encoding="UTF-8"?>
<svg height="16px" viewBox="0 0 16 16" width="16px" xmlns="http://www.w3.org/2000/svg">
    <g fill="#222222">
        <path d="m 2.398438 3 c -1.328126 0 -2.398438 1.070312 -2.398438 2.398438 v 7.203124 c 0 1.328126 1.070312 2.398438 2.398438 2.398438 h 1.394531 l 1.707031 -6 h -1.5 l 1.5 -6 z m 0 0"/>
        <path d="m 8 1 l -1.5 6 h 1.5 l -1.707031 6 h 3.308593 c 1.328126 0 2.398438 -1.070312 2.398438 -2.398438 v -7.203124 c 0 -1.328126 -1.070312 -2.398438 -2.398438 -2.398438 z m 4 6 l 3 3 h 1 v -6 h -1 z m 0 0"/>
    </g>
</svg>

<svg xmlns="http://www.w3.org/2000/svg" width="16" height="16"><path fill="#222" d="M2.398 3A2.394 2.394 0 0 0 0 5.398v7.204A2.394 2.394 0 0 0 2.398 15h1.395L5.5 9H4l1.5-6zM8 1 6.5 7H8l-1.707 6h3.309A2.394 2.394 0 0 0 12 10.602V3.398A2.394 2.394 0 0 0 9.602 1zm4 6 3 3h1V4h-1zm0 0"/></svg>
